X:1
T: Cape Wrath
C:J. Scott Skinner
R:Strathspey
Q: 128
K:D
M:4/4
L:1/16
|:d3D FA3 d8|d4 a3f eE3 E3c|d3D FA3 ((3d2a2g2) ((3f2e2d2) |Bd3 A3G FD3 D4|
d3D FA3 d8|d4 a3f eE3 E3c|d3D FA3 ((3d2a2g2) ((3f2e2d2) |((3g2a2b2) ((3e2f2g2) fd3 db3|
B3c dB3 F3A BF3|B3c d3e f4 b3B|A3B c3B A3F E3F|((3A2e2d2) ((3c2d2B2) cA3 A3F|
B3c dB3 F3A BF3|d3e fd3 a3d f3d|((3g2b2a2) ((3g2f2e2) ((3f2a2g2) ((3f2e2d2) |((3A2a2g2) ((3f2g2e2) fd3 d4:|
